X:1
T:HAUNT OF THE WITCHES
T:HAUNT OF THE WITCHES
T:To my "Erjai" M.R.C.
T:CORA CASSARD
T:Words and Music by
T:1894
T:1894
T:1894
T:1894
T:1894
C:Words and Music by
Z:CORA CASSARD
Z:1894
%%score 1 { ( 2 3 ) | ( 4 5 ) }
L:1/8
M:6/8
K:F
V:1 treble nm="Voice"
V:2 treble nm="Piano"
V:3 treble 
V:4 bass 
V:5 bass 
V:1
 z6 | z6 | z6 | z6 | z2 z z AA | AAA AAA | C C3 z A | AAA AAA | B3 B2 B | BBB BBB | C C3 z B | %11
w: ||||When the|mist from the val- ley comes|creep ing- So|stead- y, so stealth- y, of|tread,- * Her|night watch- es si- lent- ly|keep ing, Her|
 BBB ccB | A3 A z A | AAA AAA | C C3 z A | AAA AAA | (B3 B) z B | BBB BBB | C C3 z C | CCC CCC | %20
w: veil o- ver na- ture wide|spread,- * When|weath- er- bared branch es like|fin- gers- Of|skel- e- ton trees knarl'd and|old,- * Sharp|pierce the chill air and there|lin- gers,- No|sun- warmth to tem- per the|
 (C3 C2) z ||[K:C] z6 | z2 z z2 B, | A,6 |"^2nd time" z2 z z2!ppp! E |: E>EE E>^DE | F<F z z2 F | %27
w: cold, *||Ah!|me,|I|go to the haunts of the|witch es- To|
 E>EE E>EE | E3 E2 E | E>EE E>^DE | F<F z/ z2 z/ F |1 EEE B,B,C | A,3 A,2 E :|2 EAc ccB | A3 A3 || %35
w: beg them my life to fore-|tell,- * I|seek in the swamps and the|ditch es, And|find where the weird sis- ters|dwell,- * I|find where the weird sis- ters|dwell. For|
 E^DE FEF | G^FG ABc | GGG GGG | G3 z2 _B ||[K:F] A^GA CF=G | A (A2 A2) A | A^GA CFA | (B3 B) z B | %43
w: there a- mid seeth- ing and|va- pos in wreath ing, the|witch es are breath ing a|spell. And|there in the twi- light I|found her, _ My|witch with the tress- es of|gold, _ And|
 BAB CEG | B B2 B2 B | BAB edc | B3 B2 A | A_A=A CFG | A A2 A2 F | FEF _E=EF | D3 _E3 | CCC CCC | %52
w: there with the night winds a-|round her, _ My|fate and my for- tune she|told. _ Her|eyes are like sars bright ly|beam ing, _ Her|smile is like sun- light to|me, And|witche- es are no more than|
 C C2 C2 C | AAC GGB, | A,3 A,2 z | z6 | z6 | z6 | z6 |] %59
w: seem ing, _ Ex-|cept- ing such witch- es as|she. _|||||
V:2
!p! z/"_dolce" C/c/A/c/A/ x [CFA][CFAc] | z/ C/A/F/c/A/ x [CFA] x | z/ C/A/F/c/A/ f"_rit."ga | %3
 c'3 [B,CE]3 | ([A,G]3 [A,G]3) | z/ C/A/F/c/A/ !^!d2 x/ x/ | z/ C/A/F/c/A/ !^!d2 x/ x/ | %7
 z/ C/A/F/c/A/ !^!d2 x/ x/ | z/ C/A/F/c/A/ !^!d2 x/ x/ | z/ C/A/F/c/A/ !^!d2 x/ x/ | %10
 z/ C/A/F/c/A/ !^!d2 x/ x/ | z/ C/A/F/c/A/ !^!e2 x/ x/ | z/ C/A/F/c/A/ !^!d2 x/ x/ | %13
 z/ C/A/F/c/A/ !^!d2 x/ x/ | z/ C/A/F/c/A/ !^!d2 x/ x/ | z/ C/A/F/c/A/ !^!d2 x/ x/ | %16
 z/ C/A/F/c/A/ !^!d2 x/ x/ | z/ C/A/F/c/A/ !^!d2 x/ x/ | z/ C/A/F/c/A/ !^!d2 x/ x/ | %19
 z/ C/A/F/c/A/"_rit." [Bc][Bd][Be] |!p! ([Af]3 [Af]2) z ||[K:C] E/D/C/E/D/C/ E2 D/B,/ | %22
 E/C/_B,/E/C/A,/ !^!E2 z | z6 | z2 z z2 E |: [A,E]3 [A,E]2{/^D} [A,E] | [A,DF]3 [A,DF]2 [A,DF] | %27
 [A,CE]3 [G,B,DE]3 | [A,CE]6 | [A,CE]3 [A,CE]2 [A,CE] | [A,DF]3 [A,DF]2 [A,DF] |1 %31
 [A,CE]3 [^G,B,]2 C | z6 :|2 [A,CE]3 (c2 B) | [CEA]3 [G,B,DFG]3 || [G,CE]3 [G,B,F]3 | %36
 [G,CG]3 [A,CFA]3 | [G,CEG]3 [G,B,DFG]2 z | [G,CEG]cc c [CEG_B]2 ||[K:F] (F3 (A3) | F6) | F3 ACF | %42
 G6 | G3 B3 | G3 G3 | G^FG c=BG | F6 | ^F3 A3 | F6 | [A,CF]3 [A,C_E]3 | [G,=B,D]3 [F,B,_D]3 | %51
 A,_A,B, =A,_A,B, | [F,A,C]3 [F,A,C]2 C | [A,CF]2 C [B,CE]2 F | !^!f/a/A/c/f/a/ !^!d'2 x | %55
 !^!f/a/A/c/f/a/ !^!d'2 x | f/a/A/c/f/a/!8va(! c'/f'/g'/=b'/d''/f''/ | a''3 a''2!8va)! z | z6 |] %59
V:3
 x5/2 !^!d3/2 x/ x/ x | z/ x/ A/F/c/A/ (!^!d2 [CFAc]) | x6 | x3 x x A | x6 | %5
 x2 x x [CFA]!arpeggio![CFAc] | x2 x x ([CFA]!arpeggio![CFAc]) | x2 x x ([CFA]!arpeggio![CFAc]) | %8
 x2 x x [CGB]!arpeggio![CGBd] | x2 x x [CGB]!arpeggio![CGBd] | x2 x x [CGB]!arpeggio![CGBd] | %11
 x2 x x [CGB]!arpeggio![CGBd] | x2 x x [CFA]!arpeggio![CFAc] | x2 x x [CFA]!arpeggio![CFAc] | %14
 x2 x x [CFA]!arpeggio![CFAc] | x2 x x [CFA]!arpeggio![CFAc] | x2 x x [CGB]!arpeggio![CGBd] | %17
 x2 x x [CGB]!arpeggio![CGBd] | x2 x x [CGB]!arpeggio![CGBd] | x2 x x x x | x6 ||[K:C] A,3 ^G,3 | %22
 A,3 z2 z | z6 | x6 |: x6 | x6 | x6 | x6 | x6 | x6 |1 x6 | x6 :|2 x Ac [DE^G]3 | z6 || x6 | x6 | %37
 x6 | x6 ||[K:F] x [A,C][A,C] x [A,C][A,C] | x [A,C][A,C] z [A,C][A,C] | z [A,C][A,C] z2 z | %42
 z [B,CE][B,CE] z [B,CE][B,CE] | z [B,CE][B,CE] z [B,CE][B,CE] | z [B,CE][B,CE] z [B,CE][B,CE] | %45
 x6 | z [A,C][A,C] z [A,C][A,C] | z [A,C][A,C] z [A,C][A,C] | z [A,C][A,C] z [A,C][A,C] | %49
 z EF _EEF | x6 | x6 | x6 | x6 | x3 z [cfa]!arpeggio![cfac'] | x3 z [cfa]!arpeggio![cfac'] | %56
 x3!8va(! x3 | x5!8va)! x | x6 |] %59
V:4
 ([C,A,]3 [C,A,]2){/B,} C | ([C,A,]3 [C,A,]2){/B,} C | ([C,A,]3 [C,A,]3) | z3/2 [C,,E,,C,]3 x/ x | %4
 (F,,,3 F,,,3) | [F,,F,]3 [C,,C,]3 | [F,,F,]3 [C,,C,]3 | [F,,F,]3 [C,,C,]3 | [G,,G,]3 [C,,C,]3 | %9
 [G,,G,]3 [C,,C,]3 | [G,,G,]3 [C,,C,]3 | [G,,G,]3 [C,,C,]3 | [G,,G,]3 [C,,C,]3 | %13
 [F,,F,]3 [C,,C,]3 | [F,,F,]3 [C,,C,]3 | [F,,F,]3 [C,,C,]3 | [G,,G,]3 [C,,C,]3 | %17
 [G,,G,]3 [C,,C,]3 | [G,,G,]3 [C,,C,]3 | [E,,E,]3 [C,,C,]3 | ([F,,,F,,]3 [F,,,F,,]2) z || %21
[K:C] [A,,E,]3 [E,,E,]3 | [A,,E,]3 z2 [E,,D,E,^G,B,] | [A,,,D,A,]6 | [A,,,C,A,]3 [A,,,C,A,]2 z |: %25
 (A,,3{/E,} [A,,F,]2) [A,,E,] | (A,,3{/E,} [A,,F,]2) [A,,E,] | A,,2{/^D,} E, E,,2{/B,,} C, | %28
 A,,2 E, E,2 E, | A,,2{/^D,} E,{/D,} E,2{/D,} E, | A,,2{/E,} F,{/E,} F,2{/E,} F, |1 %31
 [A,,E,]3 [E,,E,]3 | ([A,,,E,,A,,C,E,A,]3 [A,,,E,,A,,C,E,A,]3) :|2 [A,,E,]3 [E,,E,]3 | %34
 [A,,,A,,]3 [B,,,B,,]3 || [C,,C,]3 [D,,D,]3 | [E,,E,]3 [F,,F,]3 | [G,,,G,,]3 [G,,,G,,]2 z | %38
 [C,,C,]3/2[C,,C,][D,,D,][E,,E,] z/ z ||[K:F] [F,,F,]3 [C,,C,]3 | [F,,F,]3 [C,,C,]3 | %41
 [G,,G,]3 [C,,C,]3 | [G,,G,]3 [C,,C,]3 | [G,,G,]3 [C,,C,]3 | [E,,E,]3 [C,,C,]3 | E,,3 [C,,C,]3 | %46
 [F,,F,]3 [C,,D,]3 | [F,,F,]3 [C,,C,]3 | [F,,F,]3 [C,,C,]3 | [F,,F,]3 [C,,C,]3 | %50
 [B,,,B,,]3 [B,,,B,,]3 | [C,,C,]6 | [C,,C,]3 [C,,C,]3 | [C,,C,]3 [C,,C,]3 | %54
 F,,[A,CF][A,CF] A,,[A,CF][A,CF] | F,,[A,CF][A,CF] A,,[A,CF][A,CF] | %56
 F,,[A,CF][A,CF] A,,[A,CF][A,CF] | [F,,C,F,]3 [F,,C,F,]2 z | E,,3 E,,2 z |] %59
V:5
 x6 | x6 | x6 | x6 | x6 | x6 | x6 | x6 | x6 | x6 | x6 | x6 | x6 | x6 | x6 | x6 | x6 | x6 | x6 | %19
 x6 | x6 ||[K:C] x6 | x6 | x6 | x6 |:{/E,} F,2{/E,} F, z2 E, |{/E,} F,2{/E,} F, z2 E, | x6 | x6 | %29
 x6 | x6 |1 x6 | x6 :|2 x6 | x6 || x6 | x6 | x6 | x6 ||[K:F] x6 | x6 | x6 | x6 | x6 | x6 | %45
 x [G,B,CE][G,B,CE] x [G,B,CE][G,B,CE] | x6 | x6 | x6 | x6 | x6 | x6 | x6 | x6 | x6 | x6 | x6 | %57
 x6 | x6 |] %59

